static/icons/hasura.svg

<svg width="155" height="160" viewBox="0 0 155 160" fill="none" xmlns="http://www.w3.org/2000/svg">
<g clip-path="url(#clip0)">
<path d="M152.548 54.4799C157.147 40.1391 154.383 11.4972 145.462 0.929262C144.298 -0.453454 142.107 -0.255924 141.14 1.26506L130.147 18.5293C127.423 21.9861 122.528 22.7762 118.857 20.3663C106.936 12.5638 92.6861 8.02062 77.3703 8.02062C62.0545 8.02062 47.8045 12.5638 35.8834 20.3663C32.2124 22.7762 27.3176 21.9663 24.594 18.5293L13.6005 1.26506C12.6334 -0.255924 10.4426 -0.453454 9.27817 0.929262C0.357115 11.4972 -2.40604 40.1391 2.19264 54.4799C3.71238 59.2404 4.14659 64.2774 3.23869 69.1959C2.35054 74.0552 1.44264 79.9416 1.44264 84.0107C1.44264 125.966 35.4492 160.001 77.3703 160.001C119.311 160.001 153.298 125.986 153.298 84.0107C153.298 79.9219 152.41 74.0552 151.502 69.1959C150.594 64.2774 151.028 59.2404 152.548 54.4799ZM77.3703 143.013C44.9624 143.013 18.594 116.623 18.594 84.1885C18.594 83.1219 18.6334 82.0749 18.6729 81.028C19.8571 58.9243 33.2584 40.0206 52.2453 31.0132C59.8637 27.3786 68.39 25.3638 77.3703 25.3638C86.3505 25.3638 94.8769 27.3984 102.515 31.033C121.502 40.0404 134.903 58.9441 136.087 81.028C136.147 82.0749 136.166 83.1219 136.166 84.1885C136.147 116.623 109.778 143.013 77.3703 143.013Z" fill="#1EB4D4"/>
<path d="M102.83 106.825L87.8101 80.7704L74.9219 59.042C74.6259 58.5284 74.0733 58.2123 73.4614 58.2123H61.1456C60.5338 58.2123 59.9812 58.5481 59.6851 59.0617C59.389 59.5951 59.389 60.2469 59.7048 60.7605L72.0206 81.5012L55.4812 106.746C55.1456 107.259 55.1062 107.931 55.4022 108.484C55.6983 109.037 56.2706 109.373 56.8825 109.373H69.2772C69.8496 109.373 70.3825 109.077 70.6983 108.602L79.639 94.6173L87.6522 108.523C87.9483 109.057 88.5206 109.373 89.1127 109.373H101.33C101.942 109.373 102.494 109.057 102.79 108.523C103.146 107.99 103.146 107.358 102.83 106.825Z" fill="#1EB4D4"/>
</g>
<defs>
<clipPath id="clip0">
<rect width="155" height="160" fill="white"/>
</clipPath>
</defs>
</svg>

<svg width="155" height="160" fill="none" xmlns="http://www.w3.org/2000/svg"><g clip-path="url(#a)" fill="#1EB4D4"><path d="M152.548 54.48c4.599-14.34 1.835-42.983-7.086-53.55-1.164-1.383-3.355-1.186-4.322.335L130.147 18.53a8.453 8.453 0 0 1-11.29 1.837C106.936 12.564 92.687 8.021 77.37 8.021c-15.316 0-29.566 4.543-41.487 12.345-3.67 2.41-8.565 1.6-11.289-1.837L13.6 1.265C12.633-.255 10.444-.453 9.279.93.358 11.497-2.406 40.14 2.193 54.48c1.52 4.761 1.954 9.798 1.046 14.717-.888 4.86-1.796 10.746-1.796 14.815 0 41.955 34.006 75.99 75.927 75.99 41.941 0 75.928-34.015 75.928-75.99 0-4.09-.888-9.956-1.796-14.815-.908-4.919-.474-9.956 1.046-14.716ZM77.37 143.013c-32.408 0-58.776-26.39-58.776-58.825 0-1.066.04-2.113.079-3.16 1.184-22.104 14.585-41.007 33.572-50.015 7.619-3.634 16.145-5.65 25.125-5.65a58.37 58.37 0 0 1 25.145 5.67c18.987 9.007 32.388 27.911 33.572 49.995.06 1.047.079 2.094.079 3.16-.019 32.435-26.388 58.825-58.796 58.825Z"/><path d="M102.83 106.825 87.81 80.77 74.922 59.042a1.674 1.674 0 0 0-1.46-.83H61.145c-.612 0-1.165.336-1.46.85a1.687 1.687 0 0 0 .019 1.699L72.02 81.5l-16.54 25.245a1.713 1.713 0 0 0-.079 1.738 1.68 1.68 0 0 0 1.48.889h12.395c.573 0 1.105-.296 1.421-.771l8.941-13.985 8.013 13.906c.296.534.869.85 1.46.85h12.218a1.65 1.65 0 0 0 1.46-.85 1.557 1.557 0 0 0 .04-1.698Z"/></g><defs><clipPath id="a"><path fill="#fff" d="M0 0h155v160H0z"/></clipPath></defs></svg>
